weblate_web/static/img/logo.svg

<svg xmlns="http://www.w3.org/2000/svg" xmlns:xlink="http://www.w3.org/1999/xlink" width="100" height="74" version="1.1" viewBox="0 0 100 74"><title>2FB70134-7F93-4F2E-8444-559A31E5B8E8</title><desc>Created with sketchtool.</desc><defs><linearGradient id="linearGradient-1" x1="0%" x2="68.26%" y1="38.057%" y2="38.057%"><stop offset="0%" stop-color="#00D2E6"/><stop offset="100%" stop-color="#2ECCAA"/></linearGradient><linearGradient id="linearGradient-2" x1="17.275%" x2="79%" y1="59.719%" y2="30.635%"><stop offset="0%" stop-color="#000" stop-opacity="0"/><stop offset="51.413%" stop-color="#000"/><stop offset="100%" stop-color="#000" stop-opacity="0"/></linearGradient><linearGradient id="linearGradient-3" x1="100%" x2="31.855%" y1="39.719%" y2="39.719%"><stop offset="0%" stop-color="#1FA385"/><stop offset="100%" stop-color="#2ECCAA"/></linearGradient></defs><g id="Weblate" fill="none" fill-rule="evenodd" stroke="none" stroke-width="1"><g id="Home" transform="translate(-315.000000, -40.000000)"><g id="WeblateLogo"><g transform="translate(315.000000, 40.000000)"><path id="Left-2" fill="url(#linearGradient-1)" fill-rule="nonzero" d="M63.6236243,55.8032044 C62.1794444,55.7959379 60.7403446,55.5020036 59.3837611,54.9108674 C56.3279233,53.5795744 53.6370521,51.0652879 51.4479795,47.6634711 C52.0722614,46.5538173 52.63488,45.404802 53.1371939,44.2367387 C55.3397265,39.1151277 56.3872085,33.5068762 56.4675446,27.9400786 C56.4558735,27.829666 56.4467311,27.7188605 56.439923,27.6076621 L56.4338929,27.3220039 C56.4290299,25.1392927 56.0965979,22.927112 55.3455621,20.8675835 C54.4803439,18.4946955 53.101208,16.1198428 50.9130697,15.1937132 C50.5154739,15.0257367 50.0972592,14.9552063 49.6809897,14.9650295 C46.9285534,9.82062868 46.8410201,4.89076621 49.6809897,0.196463654 C49.7315645,0.196463654 49.7840845,0.196660118 49.8346593,0.197053045 C53.1852399,0.233988212 56.5046976,1.26797642 59.3452508,3.07387033 C67.0798887,7.9913556 70.9362174,17.5742633 71.021222,26.9829077 C71.0223891,27.0933202 71.0210274,27.2035363 71.0177206,27.3137525 L71.0610983,27.3137525 C71.0498215,37.2571528 68.6586566,47.3405583 63.6236243,55.8032044 Z M46.4738125,71.4111285 C39.249877,74.3823606 30.8597173,74.2229269 23.6991577,70.8986248 C15.4613006,67.0748527 9.16668288,59.6426326 5.28992978,51.1591356 C-1.34120485,36.6483301 -1.49292925,19.3015717 4.79585287,4.56836935 C9.51876131,6.45776031 13.7184151,3.44852652 13.7184151,3.44852652 C13.7184151,3.44852652 13.7086891,8.07878193 18.1923399,10.4009823 C13.5919781,21.1791749 13.7028536,33.9842829 18.3129413,44.4874263 C20.5323971,49.5410609 23.922854,54.2469548 28.6224202,56.9082515 C30.299786,57.8580491 32.1429192,58.4712609 34.0389287,58.7013386 C34.0459469,58.7123091 34.0529694,58.7232764 34.0599959,58.7342405 C37.4082573,63.9587281 41.6261001,68.312642 46.4738125,71.4111285 Z"/><path id="Shadow-2" fill="url(#linearGradient-2)" d="M63.6214874,55.8067298 C62.1780248,55.7991842 60.7396755,55.5052484 59.3837611,54.9144038 C56.3274293,53.5828956 53.6361822,51.0680113 51.446918,47.6653577 C52.0716237,46.5551197 52.6345953,45.405464 53.1371939,44.2367387 C53.8012799,42.6925344 54.360326,41.1043222 54.8193896,39.4862475 C55.8834056,35.7373281 70.0103095,40.4952849 67.8552394,46.6717092 C66.7433084,49.8582002 65.3355264,52.92632 63.6214874,55.8067298 Z M46.470446,71.4125129 C39.2472705,74.382311 30.858605,74.2224105 23.6991577,70.8986248 C15.4613006,67.0748527 23.922854,54.2469548 28.6224202,56.9082515 C30.2990628,57.8576396 32.1413297,58.470732 34.036476,58.7010408 C34.0443108,58.7132901 34.0521508,58.7255355 34.0599959,58.7377768 C37.4074822,63.9610551 41.6241474,68.3141625 46.470446,71.4125129 Z" opacity=".7" style="mix-blend-mode:soft-light"/><path id="Right" fill="url(#linearGradient-3)" fill-rule="nonzero" d="M28.3812173,27.3137525 C28.3779105,27.2035363 28.3765489,27.0933202 28.377716,26.9829077 C28.4627205,17.5742633 32.3190492,7.9913556 40.0536871,3.07387033 C42.8942403,1.26797642 46.213698,0.233988212 49.5642786,0.197053045 C49.6148534,0.196660118 49.6673734,0.196463654 49.7179482,0.196463654 L49.7179482,14.9650295 C49.3016787,14.9552063 48.883464,15.0257367 48.4858682,15.1937132 C46.29773,16.1198428 44.918594,18.4946955 44.0533759,20.8675835 C43.3023401,22.927112 42.969908,25.1392927 42.965045,27.3220039 L42.959015,27.6076621 C42.9522068,27.7188605 42.9430644,27.829666 42.9313933,27.9400786 C43.0117295,33.5068762 44.0592114,39.1151277 46.2617441,44.2367387 C48.7284328,49.9726916 52.6493416,55.2493124 58.1853372,57.6611002 C62.3616487,59.480943 66.9911883,59.0516699 70.7765177,56.9082515 C75.476084,54.2469548 78.8665409,49.5410609 81.0859966,44.4874263 C85.6960843,33.9842829 85.8069599,21.1791749 81.2065981,10.4009823 C85.6902488,8.07878193 85.6805229,3.44852652 85.6805229,3.44852652 C85.6805229,3.44852652 89.8801766,6.45776031 94.6030851,4.56836935 C100.891867,19.3015717 100.740143,36.6483301 94.1090082,51.1591356 C90.2322551,59.6426326 83.9376374,67.0748527 75.6997802,70.8986248 C68.3664339,74.3031434 59.7434301,74.3882122 52.4042483,71.1905697 C45.8090996,68.31611 40.4450583,63.1373281 36.5858118,57.1155206 C30.9965181,48.3941061 28.3497053,37.7764244 28.3378397,27.3137525 L28.3812173,27.3137525 Z"/></g></g></g></g></svg>

<svg width="100" height="74" version="1.1" viewBox="0 0 100 74" xmlns="http://www.w3.org/2000/svg"><defs><linearGradient id="linearGradient-1" x2="68.26%" y1="38.057%" y2="38.057%"><stop stop-color="#00D2E6" offset="0"/><stop stop-color="#2ECCAA" offset="1"/></linearGradient><linearGradient id="linearGradient-2" x1="17.275%" x2="79%" y1="59.719%" y2="30.635%"><stop stop-opacity="0" offset="0"/><stop offset=".51413"/><stop stop-opacity="0" offset="1"/></linearGradient><linearGradient id="linearGradient-3" x1="100%" x2="31.855%" y1="39.719%" y2="39.719%"><stop stop-color="#1FA385" offset="0"/><stop stop-color="#2ECCAA" offset="1"/></linearGradient></defs><g fill="none" fill-rule="evenodd"><g transform="translate(-315 -40)"><g transform="translate(315 40)"><path d="m63.624 55.803c-1.4442-0.0072665-2.8833-0.3012-4.2399-0.89234-3.0558-1.3313-5.7467-3.8456-7.9358-7.2474 0.62428-1.1097 1.1869-2.2587 1.6892-3.4267 2.2025-5.1216 3.25-10.73 3.3304-16.297-0.011671-0.11041-0.020814-0.22122-0.027622-0.33242l-0.0060301-0.28566c-0.004863-2.1827-0.3373-4.3949-1.0883-6.4544-0.86522-2.3729-2.2444-4.7477-4.4325-5.6739-0.3976-0.16798-0.81581-0.23851-1.2321-0.22868-2.7524-5.1444-2.84-10.074 0-14.769 0.050575 0 0.10309 1.9646e-4 0.15367 5.8939e-4 3.3506 0.036935 6.67 1.0709 9.5106 2.8768 7.7346 4.9175 11.591 14.5 11.676 23.909 0.0011671 0.11041-1.946e-4 0.22063-0.0035014 0.33084h0.043378c-0.011277 9.9434-2.4024 20.027-7.4375 28.489zm-17.15 15.608c-7.2239 2.9712-15.614 2.8118-22.775-0.5125-8.2379-3.8238-14.532-11.256-18.409-19.739-6.6311-14.511-6.7829-31.858-0.49408-46.591 4.7229 1.8894 8.9226-1.1198 8.9226-1.1198s-0.009726 4.6303 4.4739 6.9525c-4.6004 10.778-4.4895 23.583 0.1206 34.086 2.2195 5.0536 5.6099 9.7595 10.309 12.421 1.6774 0.9498 3.5205 1.563 5.4165 1.7931 0.0070182 0.01097 0.014041 0.021938 0.021067 0.032902 3.3483 5.2245 7.5661 9.5784 12.414 12.677z" fill="url(#linearGradient-1)" fill-rule="nonzero"/><path d="m63.621 55.807c-1.4435-0.0075456-2.8818-0.30148-4.2377-0.89233-3.0563-1.3315-5.7476-3.8464-7.9368-7.249 0.62471-1.1102 1.1877-2.2599 1.6903-3.4286 0.66409-1.5442 1.2231-3.1324 1.6822-4.7505 1.064-3.7489 15.191 1.009 13.036 7.1855-1.1119 3.1865-2.5197 6.2546-4.2338 9.135zm-17.151 15.606c-7.2232 2.9698-15.612 2.8099-22.771-0.51389-8.2379-3.8238 0.2237-16.652 4.9233-13.99 1.6766 0.94939 3.5189 1.5625 5.4141 1.7928 0.0078348 0.012249 0.015675 0.024495 0.02352 0.036736 3.3475 5.2233 7.5642 9.5764 12.41 12.675z" fill="url(#linearGradient-2)" opacity=".7" style="mix-blend-mode:soft-light"/><path d="m28.381 27.314c-0.0033068-0.11022-0.0046684-0.22043-0.0035013-0.33084 0.085004-9.4086 3.9413-18.992 11.676-23.909 2.8406-1.8059 6.16-2.8399 9.5106-2.8768 0.050575-3.9293e-4 0.10309-5.8939e-4 0.15367-5.8939e-4v14.769c-0.41627-0.0098232-0.83448 0.060707-1.2321 0.22868-2.1881 0.92613-3.5673 3.301-4.4325 5.6739-0.75104 2.0595-1.0835 4.2717-1.0883 6.4544l-0.00603 0.28566c-0.0068082 0.1112-0.015951 0.222-0.027622 0.33242 0.080336 5.5668 1.1278 11.175 3.3304 16.297 2.4667 5.736 6.3876 11.013 11.924 13.424 4.1763 1.8198 8.8059 1.3906 12.591-0.75285 4.6996-2.6613 8.09-7.3672 10.309-12.421 4.6101-10.503 4.721-23.308 0.1206-34.086 4.4837-2.3222 4.4739-6.9525 4.4739-6.9525s4.1997 3.0092 8.9226 1.1198c6.2888 14.733 6.1371 32.08-0.49408 46.591-3.8768 8.4835-10.171 15.916-18.409 19.739-7.3333 3.4045-15.956 3.4896-23.296 0.29194-6.5951-2.8745-11.959-8.0532-15.818-14.075-5.5893-8.7214-8.2361-19.339-8.248-29.802h0.043378z" fill="url(#linearGradient-3)" fill-rule="nonzero"/></g></g></g></svg>
